X:1
T: Miss Carre's Reel
C:Robert Mackintosh
R:Reel
Q: 232
K:F
M:4/4
L:1/8
|:c|A2 Fc Ac fc|AF cA BG Gc|A2 Fc Ac fc|df eg f1/2f1/2f fc|
A2 Fc Ac fc|AF cA BG Gc|A2 Fc Ac fc|df eg f1/2f1/2f fg|
a1/2g1/2f1/2e1/2 fc Af cf|Bd cA BG Gg|a1/2g1/2f1/2e1/2 fc Ac fc|df eg f1/2f1/2f fg|
af ca ge cg|fd Bd cA GB|AF BG cA dg|eg ce f1/2f1/2f f:|
